X:300
T:Rainy Day
Z: id:dc-reel-278
M:C
L:1/8
K:A Dorian
EAAG A3B|cdef gedc|BGGF G3A|BGdG eGdG|!
EAAG A3B|cBAB cdef|g3e dBGA|B2dB A4:|!
eaag a3a|baa2 bgag|eggf g3a|bgag bgag|!
eaag aged|Bdef g3e|eaag eged|B2dB A4:|!

